src/hbcore/resources/themes/icons/hbdefault/scalable/qtg_status_progress_1.svg

<?xml version="1.0" encoding="UTF-8" standalone="no"?>
<!DOCTYPE svg PUBLIC "-//W3C//DTD SVG 1.1 Tiny//EN" "http://www.w3.org/Graphics/SVG/1.1/DTD/svg11-tiny.dtd">
<svg xmlns="http://www.w3.org/2000/svg" xmlns:xlink="http://www.w3.org/1999/xlink" baseProfile="tiny" height="16px" version="1.1" viewBox="0 0 16 16" width="16px" x="0px" y="0px">
<path d="M6.974,13.21c-2.406-0.49-4.224-2.63-4.224-5.21,0-2.574,1.82-4.723,4.224-5.209v-1.791c-3.378,0.504-5.974,3.441-5.974,7s2.596,6.497,5.974,7v-1.791z"/>
<path d="M9.025,1v1.792c2.405,0.485,4.225,2.634,4.225,5.208s-1.818,4.725-4.225,5.209v1.79c3.375-0.5,5.975-3.44,5.975-7,0-3.559-2.6-6.496-5.975-7z"/>
<rect fill="none" height="16" width="16"/>
</svg>

<?xml version="1.0" encoding="UTF-8"?>
<!DOCTYPE svg PUBLIC "-//W3C//DTD SVG 1.1 Tiny//EN" "http://www.w3.org/Graphics/SVG/1.1/DTD/svg11-tiny.dtd">
<svg baseProfile="tiny" height="16px" version="1.1" viewBox="0 0 16 16" width="16px" x="0px" xmlns="http://www.w3.org/2000/svg" xmlns:xlink="http://www.w3.org/1999/xlink" y="0px">
<path d="M6.974,13.209C4.568,12.725,2.75,10.575,2.75,8c0-2.574,1.82-4.723,4.224-5.209V1C3.596,1.504,1,4.441,1,8  c0,3.559,2.596,6.497,5.974,7V13.209z"/>
<path d="M9.025,1v1.792C11.432,3.277,13.25,5.426,13.25,8c0,2.574-1.818,4.725-4.225,5.209V15C12.402,14.497,15,11.559,15,8  C15,4.441,12.402,1.504,9.025,1z"/>
<rect fill="none" height="16" width="16"/>
</svg>
